converted-html/public/images/icons/icon-search.svg

<?xml version="1.0" encoding="UTF-8" standalone="no"?>
<svg width="18px" height="18px" viewBox="0 0 18 18" version="1.1" xmlns="http://www.w3.org/2000/svg" xmlns:xlink="http://www.w3.org/1999/xlink" xmlns:sketch="http://www.bohemiancoding.com/sketch/ns">
    <title>icon-search</title>
    <description>Created with Sketch (http://www.bohemiancoding.com/sketch)</description>
    <defs></defs>
    <g id="Page-1" stroke="none" stroke-width="1" fill="none" fill-rule="evenodd" sketch:type="MSPage">
        <g id="icon-search" sketch:type="MSArtboardGroup" fill="#9E9EA8">
            <path d="M10.9601603,13.6925389 L10.9601603,13.5525762 L11.2548697,13.2582216 L10.76501,12.6990922 C10.0976754,13.0414237 9.34376754,13.2376601 8.54440882,13.2376601 C5.8458517,13.2376601 3.65086172,11.0426261 3.65086172,8.34473637 C3.65086172,5.64612517 5.8458517,3.4510912 8.54440882,3.4510912 C11.2426052,3.4510912 13.4379559,5.64612517 13.4379559,8.34473637 C13.4379559,9.68051464 12.8986774,10.8922022 12.0268136,11.7770697 L12.4192786,12.317802 L12.6862124,12.0515842 L12.9520641,12.0515842 L15.4053307,15.3187038 C17.0083768,13.6936211 18,11.4632357 18,9.00018036 C18,4.03006072 13.9707415,0 9,0 C4.02961924,0 0,4.03006072 0,9.00018036 C0,13.9703 4.02961924,18 9,18 C10.6228858,18 12.1408016,17.5646005 13.4552705,16.8132027 C12.3453307,15.432694 10.9601603,13.6925389 10.9601603,13.6925389 Z M5,8.50059832 C5,10.4303949 6.57031339,12 8.5,12 C10.4300855,12 12,10.4303949 12,8.50059832 C12,6.57040287 10.4300855,5 8.5,5 C6.57031339,5 5,6.57040287 5,8.50059832 Z" id="search" sketch:type="MSShapeGroup"></path>
        </g>
    </g>
</svg>

<svg width="18" height="18" viewBox="0 0 18 18" xmlns="http://www.w3.org/2000/svg" xmlns:sketch="http://www.bohemiancoding.com/sketch/ns"><title>icon-search</title><path d="M10.96 13.693v-.14l.295-.294-.49-.559c-.667.342-1.421.539-2.221.539-2.699 0-4.894-2.195-4.894-4.893 0-2.699 2.195-4.894 4.894-4.894 2.698 0 4.894 2.195 4.894 4.894 0 1.336-.539 2.547-1.411 3.432l.392.541.267-.266h.266l2.453 3.267c1.603-1.625 2.595-3.855 2.595-6.319 0-4.97-4.029-9-9-9-4.97 0-9 4.03-9 9s4.03 9 9 9c1.623 0 3.141-.435 4.455-1.187-1.11-1.381-2.495-3.121-2.495-3.121zm-5.96-5.192c0 1.93 1.57 3.499 3.5 3.499s3.5-1.57 3.5-3.499c0-1.93-1.57-3.501-3.5-3.501s-3.5 1.57-3.5 3.501z" sketch:type="MSShapeGroup" fill="#9E9EA8"/></svg>
